src/icons/checkbox.svg

<svg xmlns="http://www.w3.org/2000/svg" width="24" height="24" viewBox="0 0 24 24"><path d="M22 2v20h-20v-20h20zm2-2h-24v24h24v-24zm-5.541 8.409l-1.422-1.409-7.021 7.183-3.08-2.937-1.395 1.435 4.5 4.319 8.418-8.591z"/></svg>

<svg width="24" height="24" viewBox="0 0 24 24" fill="none" xmlns="http://www.w3.org/2000/svg">
<path d="M22 2V22H2V2H22ZM24 0H0V24H24V0ZM18.459 8.409L17.037 7L10.016 14.183L6.936 11.246L5.541 12.681L10.041 17L18.459 8.409V8.409Z" fill="#5F6368"/>
</svg>
